packages/ui-icons/svg/Line/clock.svg

<svg viewBox="0 0 1920 1920" version="1.1" xmlns="http://www.w3.org/2000/svg">
    <path d="M960,112.941176 C492.875294,112.941176 112.941176,492.875294 112.941176,960 C112.941176,1427.12471 492.875294,1807.05882 960,1807.05882 C1427.12471,1807.05882 1807.05882,1427.12471 1807.05882,960 C1807.05882,492.875294 1427.12471,112.941176 960,112.941176 M960,1920 C430.644706,1920 0,1489.35529 0,960 C0,430.644706 430.644706,0 960,0 C1489.35529,0 1920,430.644706 1920,960 C1920,1489.35529 1489.35529,1920 960,1920 M1377.90494,1344.04518 L903.552,988.280471 L903.552,395.339294 L1016.49318,395.339294 L1016.49318,931.809882 L1445.66965,1253.57929 L1377.90494,1344.04518 Z" stroke="none" stroke-width="1" fill-rule="evenodd"/>
</svg>

<svg viewBox="0 0 1920 1920" version="1.1" xmlns="http://www.w3.org/2000/svg">
    <path d="M960 112.941c-467.125 0-847.059 379.934-847.059 847.059 0 467.125 379.934 847.059 847.059 847.059 467.125 0 847.059-379.934 847.059-847.059 0-467.125-379.934-847.059-847.059-847.059M960 1920C430.645 1920 0 1489.355 0 960S430.645 0 960 0s960 430.645 960 960-430.645 960-960 960m417.905-575.955L903.552 988.28V395.34h112.941v536.47l429.177 321.77-67.765 90.465z" stroke="none" stroke-width="1" fill-rule="evenodd"/>
</svg>
